public/logos/symbol-c360.svg

<svg width="65" height="65" viewBox="0 0 65 65" fill="none" xmlns="http://www.w3.org/2000/svg">
<path fill-rule="evenodd" clip-rule="evenodd" d="M47.5446 30.3993H64.2705C63.4264 13.4682 49.4314 0 32.2907 0C14.6064 0 0.270508 14.3359 0.270508 32.0202C0.270508 49.7044 14.6064 64.0403 32.2907 64.0403C49.3102 64.0403 63.2283 50.762 64.2507 33.9997H47.585C47.4256 35.2576 47.0876 36.4295 46.6723 37.519C45.5627 40.4302 43.5593 42.6738 41.6625 44.7981C41.5171 44.961 41.3722 45.1232 41.2284 45.285C39.129 47.6464 37.3317 50.2109 35.8639 53.1313L35.8399 53.1789C35.1013 54.6468 34.3708 56.0984 33.8617 57.7355C33.4712 58.9929 33.1279 60.2993 32.7866 61.5984L32.7813 61.6185C32.749 61.7407 32.7281 61.8693 32.7069 61.9994C32.6554 62.3162 32.6025 62.6411 32.3811 62.8995C32.1109 62.4063 32.0072 61.8676 31.9047 61.3352C31.866 61.1342 31.8275 60.9342 31.7803 60.7378C31.6045 60.0089 31.3698 59.2767 31.1402 58.5761C31.0814 58.3965 31.0233 58.2171 30.9653 58.0381C30.5662 56.8069 30.1737 55.596 29.6186 54.4925C28.9862 53.2329 28.3393 52.0159 27.6574 50.8493C26.9645 49.6639 26.228 48.563 25.4556 47.4467C24.5835 46.1868 23.5192 45.0828 22.4484 43.9722C21.6835 43.1787 20.9152 42.3819 20.2114 41.5223C18.9398 39.9683 18.013 38.0481 17.4498 35.8779C17.0038 33.9255 16.9089 32.8327 16.8882 30.8743C17.0713 30.3588 17.1471 29.8382 17.2208 29.3326C17.28 28.9259 17.3378 28.5289 17.4489 28.1519C18.2093 25.5738 19.4562 23.5648 21.0921 21.8665C23.2146 19.663 26.0308 17.841 29.6587 17.2231C33.9181 16.4986 37.7166 17.8427 40.3869 19.3848C41.7882 20.193 42.9514 21.1992 43.99 22.3871C45.8013 24.4583 47.1192 27.05 47.5446 30.3993Z" fill="#001737"/>
<ellipse cx="32.2911" cy="32.0215" rx="9.32233" ry="9.32233" fill="#001737"/>
</svg>

<svg viewBox="0 0 65 65" fill="none" xmlns="http://www.w3.org/2000/svg"><path fill-rule="evenodd" clip-rule="evenodd" d="M47.545 30.4H64.27C63.426 13.467 49.431 0 32.29 0 14.607 0 .27 14.336.27 32.02c0 17.684 14.336 32.02 32.02 32.02 17.02 0 30.938-13.278 31.96-30.04H47.586c-.16 1.258-.497 2.43-.913 3.519-1.11 2.911-3.113 5.155-5.01 7.28l-.434.486c-2.099 2.361-3.896 4.926-5.364 7.846l-.024.048c-.739 1.468-1.47 2.92-1.978 4.556-.39 1.258-.734 2.564-1.075 3.863l-.006.02c-.032.123-.053.251-.074.381-.052.317-.105.642-.326.9-.27-.493-.374-1.031-.476-1.564-.039-.2-.078-.4-.125-.597a28.427 28.427 0 0 0-.64-2.162l-.175-.538c-.399-1.231-.791-2.442-1.346-3.545a65.1 65.1 0 0 0-1.962-3.644c-.692-1.185-1.429-2.286-2.201-3.402-.872-1.26-1.937-2.364-3.008-3.475-.765-.793-1.533-1.59-2.237-2.45-1.271-1.554-2.198-3.474-2.761-5.644-.446-1.953-.541-3.045-.562-5.004.183-.515.26-1.036.333-1.541.059-.407.117-.804.228-1.181.76-2.578 2.007-4.587 3.643-6.286 2.123-2.203 4.939-4.025 8.567-4.643 4.26-.724 8.058.62 10.728 2.162 1.401.808 2.564 1.814 3.603 3.002 1.811 2.071 3.13 4.663 3.555 8.012z" fill="#001737"/><circle cx="32.291" cy="32.022" fill="#001737" r="9.322"/></svg>
